X:1
T:Mrs. Hamilton of Wishaw
T:Mrs. Hamilton of Wishaw
T:William Marshall
C:William Marshall
L:1/8
Q:1/8=128
M:4/4
K:A
V:1 treble 
V:1
|: E | A>A AA B>G EG | A>A cA B3 c | A>A AA B>A Bc | F>B A/G/F/E/ A2 AE | A>A AA B>G EG | %6
 A>A cA B3 c | A>A AA B>A Bc | F>B A/G/F/E/ A2 Af/g/ | a>e a/g/f/b/ a<f ec | A>A ce fB Bf/g/ | %11
 a>e a/g/f/b/ a>f ec | E>E EF/G/ A2 Af/g/ | a>e a/g/f/b/ af ec | A>A AA fB Bc/d/ | ce ea df fb | %16
 E>E EF/G/ A2 A :| %17

